apps/documenteditor/main/resources/img/toolbar/2.5x/add-text.svg

<svg width="20" height="20" viewBox="0 0 20 20" fill="none" xmlns="http://www.w3.org/2000/svg">
<path fill-rule="evenodd" clip-rule="evenodd" d="M5 3H6V5H8V6H6V8H5V6H3V5H5V3ZM5 9H6V16H14V7H12C11.4477 7 11 6.55228 11 6V4H7V3H11.5858C11.851 3 12.1054 3.10536 12.2929 3.29289L14.7071 5.70711C14.8946 5.89464 15 6.149 15 6.41421V16C15 16.5523 14.5523 17 14 17H6C5.44772 17 5 16.5523 5 16V9ZM12 4.40195L13.5996 6H12V4.40195Z" fill="black"/>
</svg>

<svg width="20" height="20" fill="none" xmlns="http://www.w3.org/2000/svg"><path d="M5 3h1v2h2v1H6v2H5V6H3V5h2V3z" fill="#000"/><path fill-rule="evenodd" clip-rule="evenodd" d="M5 9h1v7h8V7h-2a1 1 0 0 1-1-1V4H7V3h4.586a1 1 0 0 1 .707.293l2.414 2.414a1 1 0 0 1 .293.707V16a1 1 0 0 1-1 1H6a1 1 0 0 1-1-1V9zm7-4.598L13.6 6H12V4.402z" fill="#000"/></svg>
